X:1
T: The Fair Maidens
C:
R:Reel
Q: 232
K:G
M:4/4
L:1/8
|:D2|GD GA BG Bd|gf ed cB AG|AB cd ec AG|FG AF D2 EG|
GD GA BG Bd|gf ed cB AG|AB cd ec AF|G2 GF G2:|
|:FG|AD FD AD FD|cA BG A2 GA|BD GD BD GD|dB cA B2 A2|
GD GA BG Bd|gf ed cB AG|AB cd ec AF|G2 GF G2:|
